X:1
T:Title
L:1/8
M:4/4
K:D
V:1 treble nm="Grand Piano"
V:1
 z4 z A2 A | A2 A2- A A2 A | GA ^A2- A G2 G | G2 G2- G G2 G | =FG A2- A F2 F | =F2 F2- F F2 G | %6
 =F2 E2- E ^A2 =A | G2 E2- E =F2 C | D4- D d2 c | d2 ^A2- A d2 c | d2 A2- A d2 c | d2 ^A2- A A2 G | %12
 A4- A ^A2 A | ^A2 =A2- A A2 A | A2 G2- G G2 G | G2 =F2- F F2 D | E4- E E2 C | D2 E=F G G2 G | %18
 G2 =F2- F F2 D | E4- E E2 C | D6 z2 |] %21

